X:36
T: Old Joe Clark
M: 4/4
L: 1/4
K: D
"A"e3/2f/gf|edcA|"A"e3/2f/gf|eaa2|
"A"e3/2f/gf|edcA|"A"Ac "G"B/A/ G|"A"(A2A2):: 
"A"G/AA/A2|edc2|AcBA|"G"G2[G2B2]|
"A"G/AA/A2|edc2|"A"c A/c/  "G"B/A/ G|"A"(A2A2):| 

%%newpage

